X: 11
T:The Wherligig
M:6/8
L:1/8
Q:110
R:Jig
K:DDor
A2A d2e|f>ga e>fg|fa2 A>Bc|df2 e3||
eg2 gaf|e>fg c>fe|d>cB A>ag|f3 e>ag|eg2 ce2|d>cB A>fe|f>ga b>ag|ae2 d3||

